assets/images/icons/detail-feature-02.svg

<svg width="16" height="16" viewBox="0 0 16 16" fill="none" xmlns="http://www.w3.org/2000/svg">
<g id="fi_6088826" clip-path="url(#clip0_242_14063)">
<g id="Group">
<g id="Page-1_32_">
<g id="paperwork_filled_32_">
<path id="pen_x2C_-ink_x2C_-writing_x2C_-nib_x2C_-text_x2C_-author" d="M8.64014 2.79788L10.4368 0.202742C10.6039 -0.0386569 10.9488 -0.0697497 11.1564 0.137838L15.8621 4.84356C16.0697 5.05115 16.0386 5.39611 15.7972 5.5632L13.2021 7.35983L8.64014 2.79788ZM12.4157 7.90434L10.8961 8.95631C10.2613 9.3958 9.88254 10.1187 9.88254 10.8908V13.1761C9.88254 13.3898 9.73845 13.5767 9.53171 13.6311L0.590802 15.984C0.242281 16.0757 -0.0757407 15.7577 0.0159751 15.4092L2.36884 6.46826C2.42324 6.26152 2.61014 6.11746 2.82392 6.11746H5.10916C5.88123 6.11746 6.60421 5.73866 7.04366 5.10387L8.09563 3.58435L12.4157 7.90434ZM4.19831 11.1362L1.55002 13.7845C1.36625 13.9682 1.36625 14.2662 1.55002 14.45C1.7338 14.6337 2.03176 14.6337 2.2155 14.45L4.86379 11.8017C5.09682 11.9279 5.36371 11.9996 5.64733 11.9996C6.55696 11.9996 7.29434 11.2622 7.29434 10.3526C7.29434 9.44298 6.55696 8.7056 5.64733 8.7056C4.7377 8.7056 4.00032 9.44298 4.00032 10.3526C4.00035 10.6363 4.07207 10.9032 4.19831 11.1362ZM5.64736 11.0585C5.25753 11.0585 4.94151 10.7425 4.94151 10.3526C4.94151 9.96281 5.25753 9.64679 5.64736 9.64679C6.03719 9.64679 6.35321 9.96281 6.35321 10.3526C6.35321 10.7425 6.03719 11.0585 5.64736 11.0585Z" fill="#7FB51F"/>
</g>
</g>
</g>
</g>
<defs>
<clipPath id="clip0_242_14063">
<rect width="16" height="16" fill="white"/>
</clipPath>
</defs>
</svg>

<svg xmlns="http://www.w3.org/2000/svg" width="16" height="16" fill="none"><g clip-path="url(#a)"><path fill="#7FB51F" d="M8.64 2.798 10.437.203a.47.47 0 0 1 .72-.065l4.705 4.706a.47.47 0 0 1-.065.72L13.202 7.36zm3.776 5.106-1.52 1.052a2.35 2.35 0 0 0-1.013 1.935v2.285a.47.47 0 0 1-.351.455L.59 15.984a.47.47 0 0 1-.575-.575l2.353-8.94a.47.47 0 0 1 .455-.352h2.285c.772 0 1.495-.378 1.935-1.013l1.052-1.52zm-8.218 3.232L1.55 13.785a.47.47 0 0 0 .666.665l2.648-2.648a1.647 1.647 0 1 0-.665-.665m1.45-.077a.706.706 0 1 1 0-1.412.706.706 0 0 1 0 1.412"/></g><defs><clipPath id="a"><path fill="#fff" d="M0 0h16v16H0z"/></clipPath></defs></svg>
